data/jacquarda-bastarda-9.svg

<svg width="147.54" height="18.375" viewBox="0 0 147.54 18.375" xmlns="http://www.w3.org/2000/svg"><path transform="translate(0 14.067) scale(.013462 -.013462)" d="m80 480h80v-80h-80zm0 80h80v-80h-80zm0 80h80v-80h-80zm80 80h80v-80h-80zm80 0h80v-80h-80zm80 0h80v-80h-80zm80-80h80v-80h-80zm240 0h80v-80h-80zm0 80h80v-80h-80zm-80 0h80v-80h-80zm-400-320h80v-80h-80zm400-240h80v-80h-80zm80-80h80v-80h-80zm0-80h80v-80h-80zm0-80h80v-80h-80zm-80-80h80v-80h-80zm-80 0h80v-80h-80zm-80 0h80v-80h-80zm-80 0h80v-80h-80zm-80 80h80v-80h-80zm0 80h80v-80h-80zm-80 80h80v-80h-80zm-80 0h80v-80h-80zm0-80h80v-80h-80zm480 560h80v-80h-80zm-80-80h80v-80h-80zm160 0h80v-80h-80zm-80-80h80v-80h-80zm0-80h80v-80h-80zm0-80h80v-80h-80zm-80 400h80v-80h-80zm-240-160h80v-80h-80z"/><path transform="translate(9.6923 14.067) scale(.013462 -.013462)" d="m80 80h80v-80h-80zm80 80h80v-80h-80zm0 80h80v-80h-80zm0 80h80v-80h-80zm0 80h80v-80h-80zm80 80h80v-80h-80zm80 0h80v-80h-80zm160 0h80v-80h-80zm-80-80h80v-80h-80zm0-80h80v-80h-80zm0-80h80v-80h-80zm0-80h80v-80h-80zm-160-80h80v-80h-80zm80 80h80v-80h-80zm160-80h80v-80h-80z"/><path transform="translate(17.231 14.067) scale(.013462 -.013462)" d="m240 480h80v-80h-80zm80 0h80v-80h-80zm80-80h80v-80h-80zm-240 0h80v-80h-80zm0-80h80v-80h-80zm0-80h80v-80h-80zm0-80h80v-80h-80zm-80-80h80v-80h-80zm160 0h80v-80h-80zm80 0h80v-80h-80zm80 80h80v-80h-80z"/><path transform="translate(23.692 14.067) scale(.013462 -.013462)" d="m80 80h80v-80h-80zm80 80h80v-80h-80zm0 80h80v-80h-80zm0 80h80v-80h-80zm0 80h80v-80h-80zm80 80h80v-80h-80zm80 0h80v-80h-80zm160 0h80v-80h-80zm-80-80h80v-80h-80zm0-80h80v-80h-80zm0-80h80v-80h-80zm0-80h80v-80h-80zm0-80h80v-80h-80zm0-80h80v-80h-80zm0-80h80v-80h-80zm80-80h80v-80h-80zm-240 240h80v-80h-80zm80 0h80v-80h-80z"/><path transform="translate(31.231 14.067) scale(.013462 -.013462)" d="m80 400h80v-80h-80zm80 80h80v-80h-80zm80-80h80v-80h-80zm0-80h80v-80h-80zm0-80h80v-80h-80zm0-80h80v-80h-80zm80-80h80v-80h-80zm-160 0h80v-80h-80zm320 80h80v-80h-80zm-80 0h80v-80h-80zm160-80h80v-80h-80zm80 80h80v-80h-80zm-160 80h80v-80h-80zm0 80h80v-80h-80zm0 80h80v-80h-80zm0 80h80v-80h-80zm80-80h80v-80h-80zm80 80h80v-80h-80z"/><path transform="translate(40.923 14.067) scale(.013462 -.013462)" d="m80 80h80v-80h-80zm80 80h80v-80h-80zm0 80h80v-80h-80zm0 80h80v-80h-80zm0 80h80v-80h-80zm80 80h80v-80h-80zm80 0h80v-80h-80zm160 0h80v-80h-80zm-80-80h80v-80h-80zm0-80h80v-80h-80zm0-80h80v-80h-80zm0-80h80v-80h-80zm-160-80h80v-80h-80zm80 80h80v-80h-80zm160-80h80v-80h-80z"/><path transform="translate(48.462 14.067) scale(.013462 -.013462)" d="m240 240h80v-80h-80zm0 80h80v-80h-80zm0 80h80v-80h-80zm-80 80h80v-80h-80zm-80-80h80v-80h-80zm240 80h80v-80h-80zm80 0h80v-80h-80zm80-80h80v-80h-80zm-240-240h80v-80h-80zm-80-80h80v-80h-80zm240 80h80v-80h-80zm-80-80h80v-80h-80z"/><path transform="translate(56 14.067) scale(.013462 -.013462)" d="m80 80h80v-80h-80zm80 80h80v-80h-80zm0 80h80v-80h-80zm0 80h80v-80h-80zm0 80h80v-80h-80zm80 80h80v-80h-80zm80 80h80v-80h-80zm-80 80h80v-80h-80zm-80 80h80v-80h-80zm240-240h80v-80h-80zm0-80h80v-80h-80zm0-80h80v-80h-80zm0-80h80v-80h-80zm0-80h80v-80h-80zm-160-80h80v-80h-80zm80 0h80v-80h-80z"/><path transform="translate(62.462 14.067) scale(.013462 -.013462)" d="m80 80h80v-80h-80zm80 80h80v-80h-80zm0 80h80v-80h-80zm0 80h80v-80h-80zm0 80h80v-80h-80zm80 80h80v-80h-80zm80 0h80v-80h-80zm160 0h80v-80h-80zm-80-80h80v-80h-80zm0-80h80v-80h-80zm0-80h80v-80h-80zm0-80h80v-80h-80zm-160-80h80v-80h-80zm80 80h80v-80h-80zm160-80h80v-80h-80z"/><path transform="translate(75.385 14.067) scale(.013462 -.013462)" d="m80 400h80v-80h-80zm80 0h80v-80h-80zm0 80h80v-80h-80zm-80 80h80v-80h-80zm0 80h80v-80h-80zm80 80h80v-80h-80zm80 0h80v-80h-80zm80-80h80v-80h-80zm80 80h80v-80h-80zm80 0h80v-80h-80zm80 0h80v-80h-80zm80-80h80v-80h-80zm0-80h80v-80h-80zm80 80h80v-80h-80zm0 80h80v-80h-80zm80 0h80v-80h-80zm-240-160h80v-80h-80zm-80-80h80v-80h-80zm-80 0h80v-80h-80zm-80 80h80v-80h-80zm0-80h80v-80h-80zm0-80h80v-80h-80zm0-80h80v-80h-80zm0-80h80v-80h-80zm80-160h80v-80h-80zm80 0h80v-80h-80zm-160 80h80v-80h-80zm-80 80h80v-80h-80zm-80 0h80v-80h-80zm-80-80h80v-80h-80zm0-80h80v-80h-80zm80 0h80v-80h-80zm400 0h80v-80h-80zm80 0h80v-80h-80zm80 80h80v-80h-80zm80 80h80v-80h-80zm0 80h80v-80h-80zm0 80h80v-80h-80zm-80 80h80v-80h-80z"/><path transform="translate(87.231 14.067) scale(.013462 -.013462)" d="m80 80h80v-80h-80zm80 80h80v-80h-80zm0 80h80v-80h-80zm0 80h80v-80h-80zm0 80h80v-80h-80zm80 80h80v-80h-80zm80 0h80v-80h-80zm160 0h80v-80h-80zm-80-80h80v-80h-80zm0-80h80v-80h-80zm0-80h80v-80h-80zm0-80h80v-80h-80zm-160-80h80v-80h-80zm80 80h80v-80h-80zm160-80h80v-80h-80z"/><path transform="translate(94.769 14.067) scale(.013462 -.013462)" d="m240 480h80v-80h-80zm80 0h80v-80h-80zm160 0h80v-80h-80zm-80-80h80v-80h-80zm-80-80h80v-80h-80zm-80-80h80v-80h-80zm-80-80h80v-80h-80zm-80-80h80v-80h-80zm80 320h80v-80h-80zm0-80h80v-80h-80zm240-80h80v-80h-80zm0-80h80v-80h-80zm-80-80h80v-80h-80zm-80 0h80v-80h-80z"/><path transform="translate(102.31 14.067) scale(.013462 -.013462)" d="m320 160h80v-80h-80zm-80-80h80v-80h-80zm-80 80h80v-80h-80zm0 80h80v-80h-80zm0 80h80v-80h-80zm0 80h80v-80h-80zm-80 80h80v-80h-80zm160 0h80v-80h-80zm-80 80h80v-80h-80zm80 80h80v-80h-80zm-80-160h80v-80h-80zm160 0h80v-80h-80z"/><path transform="translate(107.69 14.067) scale(.013462 -.013462)" d="m80 80h80v-80h-80zm80 80h80v-80h-80zm0 80h80v-80h-80zm0 80h80v-80h-80zm0 80h80v-80h-80zm80 80h80v-80h-80zm80 0h80v-80h-80zm160 0h80v-80h-80zm-80-80h80v-80h-80zm0-80h80v-80h-80zm0-80h80v-80h-80zm0-80h80v-80h-80zm-160-80h80v-80h-80zm80 80h80v-80h-80zm160-80h80v-80h-80z"/><path transform="translate(115.23 14.067) scale(.013462 -.013462)" d="m240 240h80v-80h-80zm0 80h80v-80h-80zm0 80h80v-80h-80zm-80 80h80v-80h-80zm-80-80h80v-80h-80zm240 80h80v-80h-80zm80 0h80v-80h-80zm80-80h80v-80h-80zm-240-240h80v-80h-80zm-80-80h80v-80h-80zm240 80h80v-80h-80zm-80-80h80v-80h-80z"/><path transform="translate(122.77 14.067) scale(.013462 -.013462)" d="m80 80h80v-80h-80zm80 80h80v-80h-80zm0 80h80v-80h-80zm0 80h80v-80h-80zm0 80h80v-80h-80zm80 80h80v-80h-80zm80 80h80v-80h-80zm-80 80h80v-80h-80zm-80 80h80v-80h-80zm240-240h80v-80h-80zm0-80h80v-80h-80zm0-80h80v-80h-80zm0-80h80v-80h-80zm0-80h80v-80h-80zm-160-80h80v-80h-80zm80 0h80v-80h-80z"/><path transform="translate(129.23 14.067) scale(.013462 -.013462)" d="m80 80h80v-80h-80zm80 80h80v-80h-80zm0 80h80v-80h-80zm0 80h80v-80h-80zm0 80h80v-80h-80zm80 80h80v-80h-80zm80 0h80v-80h-80zm160 0h80v-80h-80zm-80-80h80v-80h-80zm0-80h80v-80h-80zm0-80h80v-80h-80zm0-80h80v-80h-80zm-160-80h80v-80h-80zm80 80h80v-80h-80zm160-80h80v-80h-80z"/><path transform="translate(142.15 14.067) scale(.013462 -.013462)" d="m400 160h-80v80h80zm0 80h-80v80h80zm0 80h-80v80h80zm0 80h-80v80h80zm-160 160h-80v80h80zm80-560h-80v80h80zm-80 0h-80v80h80zm-80 80h-80v80h80zm240 400h-80v80h80zm-80 80h-80v80h80zm-160-80h-80v80h80zm0-80h-80v80h80zm0-80h-80v80h80zm80-80h-80v80h80zm80 0h-80v80h80zm0-80h80v-80h-80z"/></svg>

<?xml version="1.0" encoding="utf-8" ?>
<svg baseProfile="tiny" height="100%" version="1.2" width="100%" xmlns="http://www.w3.org/2000/svg" xmlns:ev="http://www.w3.org/2001/xml-events" xmlns:xlink="http://www.w3.org/1999/xlink"><defs /><g><path d="M80 480H160V400H80ZM80 560H160V480H80ZM80 640H160V560H80ZM160 720H240V640H160ZM240 720H320V640H240ZM320 720H400V640H320ZM400 640H480V560H400ZM640 640H720V560H640ZM640 720H720V640H640ZM560 720H640V640H560ZM160 400H240V320H160ZM560 160H640V80H560ZM640 80H720V0H640ZM640 0H720V-80H640ZM640 -80H720V-160H640ZM560 -160H640V-240H560ZM480 -160H560V-240H480ZM400 -160H480V-240H400ZM320 -160H400V-240H320ZM240 -80H320V-160H240ZM240 0H320V-80H240ZM160 80H240V0H160ZM80 80H160V0H80ZM80 0H160V-80H80ZM560 560H640V480H560ZM480 480H560V400H480ZM640 480H720V400H640ZM560 400H640V320H560ZM560 320H640V240H560ZM560 240H640V160H560ZM480 640H560V560H480ZM240 480H320V400H240Z" transform="translate(0.0, 72) scale(0.06923076923076923, -0.06923076923076923)" /><path d="M80 80H160V0H80ZM160 160H240V80H160ZM160 240H240V160H160ZM160 320H240V240H160ZM160 400H240V320H160ZM240 480H320V400H240ZM320 480H400V400H320ZM480 480H560V400H480ZM400 400H480V320H400ZM400 320H480V240H400ZM400 240H480V160H400ZM400 160H480V80H400ZM240 80H320V0H240ZM320 160H400V80H320ZM480 80H560V0H480Z" transform="translate(49.84615384615385, 72) scale(0.06923076923076923, -0.06923076923076923)" /><path d="M240 480H320V400H240ZM320 480H400V400H320ZM400 400H480V320H400ZM160 400H240V320H160ZM160 320H240V240H160ZM160 240H240V160H160ZM160 160H240V80H160ZM80 80H160V0H80ZM240 80H320V0H240ZM320 80H400V0H320ZM400 160H480V80H400Z" transform="translate(88.61538461538461, 72) scale(0.06923076923076923, -0.06923076923076923)" /><path d="M80 80H160V0H80ZM160 160H240V80H160ZM160 240H240V160H160ZM160 320H240V240H160ZM160 400H240V320H160ZM240 480H320V400H240ZM320 480H400V400H320ZM480 480H560V400H480ZM400 400H480V320H400ZM400 320H480V240H400ZM400 240H480V160H400ZM400 160H480V80H400ZM400 80H480V0H400ZM400 0H480V-80H400ZM400 -80H480V-160H400ZM480 -160H560V-240H480ZM240 80H320V0H240ZM320 80H400V0H320Z" transform="translate(121.84615384615384, 72) scale(0.06923076923076923, -0.06923076923076923)" /><path d="M80 400H160V320H80ZM160 480H240V400H160ZM240 400H320V320H240ZM240 320H320V240H240ZM240 240H320V160H240ZM240 160H320V80H240ZM320 80H400V0H320ZM160 80H240V0H160ZM480 160H560V80H480ZM400 160H480V80H400ZM560 80H640V0H560ZM640 160H720V80H640ZM480 240H560V160H480ZM480 320H560V240H480ZM480 400H560V320H480ZM480 480H560V400H480ZM560 400H640V320H560ZM640 480H720V400H640Z" transform="translate(160.6153846153846, 72) scale(0.06923076923076923, -0.06923076923076923)" /><path d="M80 80H160V0H80ZM160 160H240V80H160ZM160 240H240V160H160ZM160 320H240V240H160ZM160 400H240V320H160ZM240 480H320V400H240ZM320 480H400V400H320ZM480 480H560V400H480ZM400 400H480V320H400ZM400 320H480V240H400ZM400 240H480V160H400ZM400 160H480V80H400ZM240 80H320V0H240ZM320 160H400V80H320ZM480 80H560V0H480Z" transform="translate(210.46153846153845, 72) scale(0.06923076923076923, -0.06923076923076923)" /><path d="M240 240H320V160H240ZM240 320H320V240H240ZM240 400H320V320H240ZM160 480H240V400H160ZM80 400H160V320H80ZM320 480H400V400H320ZM400 480H480V400H400ZM480 400H560V320H480ZM240 160H320V80H240ZM160 80H240V0H160ZM400 160H480V80H400ZM320 80H400V0H320Z" transform="translate(249.23076923076923, 72) scale(0.06923076923076923, -0.06923076923076923)" /><path d="M80 80H160V0H80ZM160 160H240V80H160ZM160 240H240V160H160ZM160 320H240V240H160ZM160 400H240V320H160ZM240 480H320V400H240ZM320 560H400V480H320ZM240 640H320V560H240ZM160 720H240V640H160ZM400 480H480V400H400ZM400 400H480V320H400ZM400 320H480V240H400ZM400 240H480V160H400ZM400 160H480V80H400ZM240 80H320V0H240ZM320 80H400V0H320Z" transform="translate(288.0, 72) scale(0.06923076923076923, -0.06923076923076923)" /><path d="M80 80H160V0H80ZM160 160H240V80H160ZM160 240H240V160H160ZM160 320H240V240H160ZM160 400H240V320H160ZM240 480H320V400H240ZM320 480H400V400H320ZM480 480H560V400H480ZM400 400H480V320H400ZM400 320H480V240H400ZM400 240H480V160H400ZM400 160H480V80H400ZM240 80H320V0H240ZM320 160H400V80H320ZM480 80H560V0H480Z" transform="translate(321.2307692307692, 72) scale(0.06923076923076923, -0.06923076923076923)" /><path d="M80 400H160V320H80ZM160 400H240V320H160ZM160 480H240V400H160ZM80 560H160V480H80ZM80 640H160V560H80ZM160 720H240V640H160ZM240 720H320V640H240ZM320 640H400V560H320ZM400 720H480V640H400ZM480 720H560V640H480ZM560 720H640V640H560ZM640 640H720V560H640ZM640 560H720V480H640ZM720 640H800V560H720ZM720 720H800V640H720ZM800 720H880V640H800ZM560 560H640V480H560ZM480 480H560V400H480ZM400 480H480V400H400ZM320 560H400V480H320ZM320 480H400V400H320ZM320 400H400V320H320ZM320 320H400V240H320ZM320 240H400V160H320ZM400 80H480V0H400ZM480 80H560V0H480ZM320 160H400V80H320ZM240 240H320V160H240ZM160 240H240V160H160ZM80 160H160V80H80ZM80 80H160V0H80ZM160 80H240V0H160ZM560 80H640V0H560ZM640 80H720V0H640ZM720 160H800V80H720ZM800 240H880V160H800ZM800 320H880V240H800ZM800 400H880V320H800ZM720 480H800V400H720Z" transform="translate(387.6923076923077, 72) scale(0.06923076923076923, -0.06923076923076923)" /><path d="M80 80H160V0H80ZM160 160H240V80H160ZM160 240H240V160H160ZM160 320H240V240H160ZM160 400H240V320H160ZM240 480H320V400H240ZM320 480H400V400H320ZM480 480H560V400H480ZM400 400H480V320H400ZM400 320H480V240H400ZM400 240H480V160H400ZM400 160H480V80H400ZM240 80H320V0H240ZM320 160H400V80H320ZM480 80H560V0H480Z" transform="translate(448.6153846153846, 72) scale(0.06923076923076923, -0.06923076923076923)" /><path d="M240 480H320V400H240ZM320 480H400V400H320ZM480 480H560V400H480ZM400 400H480V320H400ZM320 320H400V240H320ZM240 240H320V160H240ZM160 160H240V80H160ZM80 80H160V0H80ZM160 400H240V320H160ZM160 320H240V240H160ZM400 240H480V160H400ZM400 160H480V80H400ZM320 80H400V0H320ZM240 80H320V0H240Z" transform="translate(487.38461538461536, 72) scale(0.06923076923076923, -0.06923076923076923)" /><path d="M320 160H400V80H320ZM240 80H320V0H240ZM160 160H240V80H160ZM160 240H240V160H160ZM160 320H240V240H160ZM160 400H240V320H160ZM80 480H160V400H80ZM240 480H320V400H240ZM160 560H240V480H160ZM240 640H320V560H240ZM160 480H240V400H160ZM320 480H400V400H320Z" transform="translate(526.1538461538462, 72) scale(0.06923076923076923, -0.06923076923076923)" /><path d="M80 80H160V0H80ZM160 160H240V80H160ZM160 240H240V160H160ZM160 320H240V240H160ZM160 400H240V320H160ZM240 480H320V400H240ZM320 480H400V400H320ZM480 480H560V400H480ZM400 400H480V320H400ZM400 320H480V240H400ZM400 240H480V160H400ZM400 160H480V80H400ZM240 80H320V0H240ZM320 160H400V80H320ZM480 80H560V0H480Z" transform="translate(553.8461538461539, 72) scale(0.06923076923076923, -0.06923076923076923)" /><path d="M240 240H320V160H240ZM240 320H320V240H240ZM240 400H320V320H240ZM160 480H240V400H160ZM80 400H160V320H80ZM320 480H400V400H320ZM400 480H480V400H400ZM480 400H560V320H480ZM240 160H320V80H240ZM160 80H240V0H160ZM400 160H480V80H400ZM320 80H400V0H320Z" transform="translate(592.6153846153848, 72) scale(0.06923076923076923, -0.06923076923076923)" /><path d="M80 80H160V0H80ZM160 160H240V80H160ZM160 240H240V160H160ZM160 320H240V240H160ZM160 400H240V320H160ZM240 480H320V400H240ZM320 560H400V480H320ZM240 640H320V560H240ZM160 720H240V640H160ZM400 480H480V400H400ZM400 400H480V320H400ZM400 320H480V240H400ZM400 240H480V160H400ZM400 160H480V80H400ZM240 80H320V0H240ZM320 80H400V0H320Z" transform="translate(631.3846153846155, 72) scale(0.06923076923076923, -0.06923076923076923)" /><path d="M80 80H160V0H80ZM160 160H240V80H160ZM160 240H240V160H160ZM160 320H240V240H160ZM160 400H240V320H160ZM240 480H320V400H240ZM320 480H400V400H320ZM480 480H560V400H480ZM400 400H480V320H400ZM400 320H480V240H400ZM400 240H480V160H400ZM400 160H480V80H400ZM240 80H320V0H240ZM320 160H400V80H320ZM480 80H560V0H480Z" transform="translate(664.6153846153848, 72) scale(0.06923076923076923, -0.06923076923076923)" /><path d="M400 160H320V240H400ZM400 240H320V320H400ZM400 320H320V400H400ZM400 400H320V480H400ZM240 560H160V640H240ZM320 0H240V80H320ZM240 0H160V80H240ZM160 80H80V160H160ZM400 480H320V560H400ZM320 560H240V640H320ZM160 480H80V560H160ZM160 400H80V480H160ZM160 320H80V400H160ZM240 240H160V320H240ZM320 240H240V320H320ZM320 160H400V80H320Z" transform="translate(731.0769230769232, 72) scale(0.06923076923076923, -0.06923076923076923)" /></g></svg>
